img/icons/corp2/11.svg

<svg width="57" height="56" viewBox="0 0 57 56" fill="none" xmlns="http://www.w3.org/2000/svg">
<path d="M16.7823 44.3668L13.5702 38.5547C13.5838 38.5344 13.5975 38.514 13.6101 38.4931C14.0042 37.8499 13.8793 37.0377 13.354 36.5358L16.7755 30.9566C18.1409 28.7302 18.0741 27.021 18.0741 27.021L15.9616 30.4677L12.499 36.1136C11.8797 36.0163 11.2335 36.2893 10.8878 36.8528C10.8798 36.8653 10.865 36.8783 10.865 36.8907V36.8777L4.09449 36.7257C1.46521 36.6675 0 37.8154 0 37.8154L4.06768 37.9053L10.6249 38.0534C10.6819 38.28 10.865 38.4942 10.865 38.6785V55.9999H13.1464V40.915L15.5527 44.9325C16.8165 47.2194 18.6439 47.9027 18.6439 47.9027L16.7823 44.3668Z" fill="#343434"/>
<path d="M52.8552 37.1026L45.9923 33.1789C46.075 32.4611 45.7317 31.7309 45.0598 31.3471C45.0495 31.3414 45.0398 31.3364 45.0296 31.3313L45.0256 23.5263C45.0244 20.4357 43.6123 18.5835 43.6123 18.5835L43.6145 23.5268L43.618 31.1645C43.1549 31.29 42.7396 31.589 42.4807 32.0338C42.2309 32.4634 42.1722 32.9495 42.2782 33.3971L35.5254 37.266C32.8265 38.8107 32.0537 40.8686 32.0537 40.8686L36.1955 38.4778L42.8041 34.6711V55.9999H45.0855V34.3693C45.0855 34.3365 45.2999 34.3026 45.3347 34.2664L52.1805 38.1398C54.8828 39.6828 56.9999 39.4912 56.9999 39.4912L52.8552 37.1026Z" fill="#343434"/>
<path d="M42.0304 13.0377L28.2624 15.9457C28.2293 15.9056 28.195 15.866 28.1597 15.827C27.3219 14.9074 26.0831 14.5593 24.9435 14.8091L15.4194 4.33913C11.7139 0.264519 7.48535 0 7.48535 0L13.219 6.3055L22.6291 16.65C22.0793 17.8211 22.2515 19.255 23.18 20.2758C23.2 20.2979 23.22 20.3193 23.2405 20.3403L23.216 20.3323L18.8158 33.7748C17.1076 38.9928 18.5585 42.6147 18.5585 42.6147L21.1485 34.5401L23.4122 27.4642V56H27.4046V20.5443C27.4046 20.5364 27.6635 20.5285 27.6726 20.5206C28.3319 19.931 28.8207 19.1409 28.8892 18.3281L42.4924 15.4687C47.9061 14.3241 50.3774 11.2697 50.3774 11.2697L42.0304 13.0377Z" fill="#343434"/>
</svg>

<svg width="57" height="56" fill="none" xmlns="http://www.w3.org/2000/svg"><path d="M16.782 44.367l-3.212-5.812.04-.062a1.571 1.571 0 0 0-.256-1.957l3.422-5.58c1.365-2.226 1.298-3.935 1.298-3.935l-2.112 3.447-3.463 5.646a1.6 1.6 0 0 0-1.611.739c-.008.012-.023.025-.023.038v-.013l-6.77-.152C1.464 36.667 0 37.816 0 37.816l4.068.09 6.557.147c.057.227.24.441.24.626v17.32h2.281V40.916l2.407 4.017c1.264 2.287 3.09 2.97 3.09 2.97l-1.86-3.535zm36.073-7.264l-6.863-3.924a1.863 1.863 0 0 0-.962-1.848l-.004-7.805c-.002-3.09-1.414-4.942-1.414-4.942l.002 4.943.004 7.637a1.879 1.879 0 0 0-1.137.87 1.85 1.85 0 0 0-.203 1.363l-6.753 3.869c-2.698 1.545-3.471 3.603-3.471 3.603l4.142-2.391 6.608-3.807V56h2.282V34.37c0-.033.214-.067.249-.104l6.846 3.874C54.883 39.683 57 39.49 57 39.49l-4.145-2.388z" fill="#343434"/><path d="M42.03 13.038l-13.768 2.908a3.371 3.371 0 0 0-3.319-1.137L15.42 4.34C11.714.265 7.485 0 7.485 0l5.734 6.306 9.41 10.344a3.299 3.299 0 0 0 .611 3.69l-.024-.008-4.4 13.443c-1.708 5.218-.258 8.84-.258 8.84l2.59-8.075 2.264-7.076V56h3.993V20.544c0-.008.258-.015.268-.023.659-.59 1.148-1.38 1.216-2.193l13.603-2.86c5.414-1.144 7.885-4.198 7.885-4.198l-8.347 1.768z" fill="#343434"/></svg>
